X:319
T:Harvest Home. JaW.319
M:C|
L:1/8
Q:1/2=90
S:James Winder Ms, Lancashire, 1835-41
R:.Hornpipe
O:England
A:Wyresdale,Lancashire
N:Only seven Bars In B Strain in MS..
Z:vmp.Chris Partington, Aug 2004
K:D
A2|DAFA DAFA|defe dcBA|gefd edcd|edcB AGFE|!
DAFA DAFA|defe dcBA|gefd cABc|d2f2d2:|!
|:f2|eAA/A/A eAA/A/A|” Bar Missing?”eAfA gAfA|edcB AGFE|!
DAFA DAFA|defe dcBA|gefd cABc|d2f2d2:|

